X: 101
T:Martin Wynne's
M:C|
L:1/8
R:reel
D:Frankie Gavin and Alec Finn
Z:Devin McCabe
K:D
A~F3 G~E3|F2AF EFDB,|A,B,DE FEFB|ABde fedB|
!A~F3 G~E3|F2AF EFDB,|A,B,DE FEFB|1ABde fedB:|2ABde fddf|
!:~a3f gfeg|fedf e~B3|dBAF DEFA|dfaf geeg|
!faaf gfeg|fedf e~B3|dBAF DEFB|1ABde fddf:|2ABde fedB||
